teeny/solid/arrow-left-circle.svg

<svg width="15" height="15" viewBox="0 0 15 15" fill="none" xmlns="http://www.w3.org/2000/svg">
<path fill-rule="evenodd" clip-rule="evenodd" d="M15.0001 7.5C15.0001 11.6421 11.6422 15 7.50009 15C3.35796 15 9.11906e-05 11.6421 9.15527e-05 7.5C9.19149e-05 3.35786 3.35796 -3.62117e-07 7.50009 0C11.6422 3.62117e-07 15.0001 3.35786 15.0001 7.5ZM6.50002 10.2072L3.79291 7.50005L6.50002 4.79294L7.20712 5.50005L5.70717 7L11.0001 7L11.0001 8L5.70708 8L7.20712 9.50005L6.50002 10.2072Z" fill="black"/>
</svg>

<svg viewBox="0 0 15 15" xmlns="http://www.w3.org/2000/svg"><path fill-rule="evenodd" d="M15 7.5c0 4.14-3.36 7.5-7.51 7.5s-7.5-3.36-7.5-7.5c0-4.15 3.35-7.51 7.49-7.5 4.14 0 7.5 3.35 7.5 7.5Zm-8.51 2.7L3.78 7.49l2.7-2.71 .7.7 -1.5 1.49h5.29v1h-5.3l1.5 1.5 -.71.7Z"/></svg>
